brandFactory_export/2.Regular/Envio_Envio Gratis_2Regular.svg

<?xml version="1.0" encoding="UTF-8"?>
<svg width="24px" height="24px" viewBox="0 0 24 24" version="1.1" xmlns="http://www.w3.org/2000/svg" xmlns:xlink="http://www.w3.org/1999/xlink">
    <title>2.Regular/Envio_Envio Gratis_2Regular</title>
    <g id="Symbols" stroke="none" stroke-width="1" fill="none" fill-rule="evenodd">
        <g id="2.Regular/Envio_Envio-Gratis_2Regular" fill="#5CB615" fill-rule="nonzero">
            <path d="M17.0554622,4.0302521 C17.7647059,4.0302521 18.5109244,4.40672269 18.9109244,4.96470588 C19.4285714,5.68403361 22.4403361,9.68067227 22.8302521,10.1915966 C23.1260504,10.5781513 23.6235294,11.2268908 23.6235294,11.912605 L23.6235294,15.8453782 C23.6235294,16.3361345 23.4016807,16.8369748 23.0184874,17.2235294 C22.6352941,17.610084 22.1344538,17.8285714 21.6436975,17.8285714 L20.8965294,17.8296466 C20.5776971,19.0907212 19.5888246,19.794958 18.0773109,19.794958 C16.5657972,19.794958 15.5769247,19.0907212 15.2580924,17.8296466 L9.75367229,17.8296466 C9.43484,19.0907212 8.44596748,19.794958 6.93445378,19.794958 C5.42294009,19.794958 4.43406756,19.0907212 4.11523528,17.8296466 L3.94957983,17.8285714 C3.45882353,17.8285714 2.95798319,17.6067227 2.57142857,17.2235294 C2.18487395,16.8403361 1.96638655,16.3361345 1.96638655,15.8453782 L1.966,14.5512521 L0.672268908,14.5512605 C0.302521009,14.5512605 3.28705507e-10,14.2487395 3.28705507e-10,13.8789916 C3.28705507e-10,13.5092437 0.302521009,13.2067227 0.672268908,13.2067227 L1.966,13.2062521 L1.966,11.2732521 L0.672268908,11.2739496 C0.302521009,11.2739496 3.28705507e-10,10.9714286 3.28705507e-10,10.6016807 C3.28705507e-10,10.2319328 0.302521009,9.92941176 0.672268908,9.92941176 L1.966,9.9292521 L1.966,7.9962521 L0.672268908,7.99663866 C0.302521009,7.99663866 3.28705507e-10,7.69411765 3.28705507e-10,7.32436975 C3.28705507e-10,6.95462185 0.302521009,6.65210084 0.672268908,6.65210084 L1.966,6.6512521 L1.96638655,6.01344538 C1.96638655,5.52268908 2.18823529,5.02184874 2.57142857,4.63529412 C2.95462185,4.2487395 3.45882353,4.0302521 3.94957983,4.0302521 L17.0554622,4.0302521 Z M6.93445378,15.2773109 C5.82184874,15.2773109 5.34789916,15.7512605 5.34789916,16.8638655 C5.34789916,17.9764706 5.82184874,18.4504202 6.93445378,18.4504202 C8.04705882,18.4504202 8.5210084,17.9764706 8.5210084,16.8638655 C8.5210084,15.7512605 8.04705882,15.2773109 6.93445378,15.2773109 Z M18.0773109,15.2773109 C16.9647059,15.2773109 16.4907563,15.7512605 16.4907563,16.8638655 C16.4907563,17.9764706 16.9647059,18.4504202 18.0773109,18.4504202 C19.189916,18.4504202 19.6638655,17.9764706 19.6638655,16.8638655 C19.6638655,15.7512605 19.1865546,15.2773109 18.0773109,15.2773109 Z M17.0521008,5.37478992 L3.94957983,5.37478992 C3.66386555,5.37478992 3.31092437,5.72773109 3.31092437,6.01344538 L3.31092437,15.8453782 C3.31092437,16.1310924 3.66386555,16.4840336 3.94957983,16.4840336 L4.01903303,16.4839343 C4.1571646,14.8570333 5.2028447,13.9327731 6.93445378,13.9327731 C8.66606287,13.9327731 9.71174296,14.8570333 9.84987453,16.4839343 L15.1618902,16.4839343 C15.3000217,14.8570333 16.3457018,13.9327731 18.0773109,13.9327731 C19.80892,13.9327731 20.8546001,14.8570333 20.9927317,16.4839343 L21.6436975,16.4840336 C21.9294118,16.4840336 22.2823529,16.1310924 22.2823529,15.8453782 L22.2823529,11.912605 C22.2823529,11.6840336 21.892437,11.1764706 21.7647059,11.0117647 C21.3680672,10.497479 18.3428571,6.47731092 17.8184874,5.7512605 C17.6672269,5.5394958 17.3310924,5.37478992 17.0521008,5.37478992 Z" id="Envio_Envio-Gratis_2Regular"></path>
        </g>
    </g>
</svg>

<svg width="24" height="24" viewBox="0 0 24 24" xmlns="http://www.w3.org/2000/svg"><path d="M17.055 4.03c.71 0 1.456.377 1.856.935.518.719 3.53 4.716 3.92 5.227.295.386.793 1.035.793 1.72v3.933c0 .491-.222.992-.606 1.379-.383.386-.884.605-1.374.605h-.747c-.32 1.262-1.308 1.966-2.82 1.966-1.511 0-2.5-.704-2.819-1.965H9.754c-.32 1.26-1.308 1.965-2.82 1.965-1.511 0-2.5-.704-2.819-1.965l-.165-.001c-.491 0-.992-.222-1.379-.605-.386-.384-.605-.888-.605-1.379v-1.294H.672A.674.674 0 010 13.88c0-.37.303-.672.672-.672h1.294v-1.934H.672A.674.674 0 010 10.603c0-.37.303-.673.672-.673h1.294V7.996H.672A.674.674 0 010 7.325c0-.37.303-.672.672-.672h1.294v-.639c0-.49.222-.991.605-1.378.384-.386.888-.605 1.379-.605h13.105zM6.935 15.277c-1.113 0-1.587.474-1.587 1.587 0 1.112.474 1.586 1.586 1.586 1.113 0 1.587-.474 1.587-1.586 0-1.113-.474-1.587-1.587-1.587zm11.142 0c-1.112 0-1.586.474-1.586 1.587 0 1.112.474 1.586 1.586 1.586 1.113 0 1.587-.474 1.587-1.586 0-1.113-.477-1.587-1.587-1.587zm-1.025-9.902H3.95c-.286 0-.64.353-.64.638v9.832c0 .286.354.639.64.639h.069c.138-1.627 1.184-2.551 2.915-2.551 1.732 0 2.778.924 2.916 2.55h5.312c.138-1.626 1.184-2.55 2.915-2.55 1.732 0 2.778.924 2.916 2.55l.65.001c.286 0 .64-.353.64-.639v-3.932c0-.229-.39-.737-.518-.901a578.49 578.49 0 01-3.947-5.26c-.15-.213-.487-.377-.766-.377z" fill="#5CB615" fill-rule="nonzero"/></svg>
